X:1
M:4/4
L:1/8
K:E
C:Paul Spencer
E| EEEE FFGF|FE5 zE|
 DDDD DBBB| CCCC CBBB| EEEE ECCC| D6 z2|
G,G,G,G, A,G,G,G,| CCCB, C3C|
 DDDC DB,B,B,| CCCB, CA,A,A,| B,B,CA, B4|z7 :|
